configs/network-icons/ethereum-classic.svg

<svg width="30" height="30" viewBox="0 0 30 30" fill="none" xmlns="http://www.w3.org/2000/svg">
<rect width="30" height="30" rx="15" fill="#4AD7A7" fill-opacity="0.15"/>
<path d="M8.25391 13.7884L15.1322 10.8889L21.7989 13.8625L15.1216 3.33337L8.25391 13.7884ZM8.27507 17.0053L15.1428 20.9842L22.1481 17.0053L15.2063 26.6667L8.27507 17.0053Z" fill="#4AD7A7"/>
<path d="M15.164 12.3069L8 15.3228L15.164 19.3016L22.127 15.4074L15.164 12.3069Z" fill="#4AD7A7"/>
</svg>

<svg xmlns="http://www.w3.org/2000/svg" fill="none" viewBox="0 0 30 30">
  <rect width="30" height="30" fill="#4AD7A7" fill-opacity=".15" rx="15"/>
  <path fill="#4AD7A7" d="m8.254 13.788 6.878-2.9 6.667 2.975-6.677-10.53-6.868 10.455Zm.021 3.217 6.868 3.98 7.005-3.98-6.942 9.662-6.93-9.662Z"/>
  <path fill="#4AD7A7" d="M15.164 12.307 8 15.323l7.164 3.979 6.963-3.895-6.963-3.1Z"/>
</svg>
